static/images/frog-tribal-vector.svg

<svg viewBox="0 0 680 705" fill="none" xmlns="http://www.w3.org/2000/svg"><path d="M338.241 497.699c.56-77.09.934-154.18.747-231.27-.224-86.499-1.008-173.03-1.606-259.562 0-2.257-.71-4.515-1.121-6.867 26.034 2.257 75.449 51.277 102.416 101.282-35.707 29.978-37.276 67.394-30.478 106.178 2.316 13.16 20.767 24.255 36.604 23.969 18.152-.318 33.914-10.681 36.454-25.623 3.698-21.807 6.35-43.774 9.001-65.709 1.494-12.334 6.313-19.964 23.569-19.233 18.675.795 37.463-.286 56.175-1.239 14.268-.732 19.983 6.866 19.273 16.34-3.436 45.745-13.82 89.329-55.764 122.803-25.324 20.218-40.19 26.831-82.546 31.44 19.273 34.714 29.694 69.492-3.398 104.493 20.169-6.39 37.574-12.335 55.316-17.357 7.209-2.035 15.202-3.052 22.821-2.925 41.87.699 62.974 25.686 53.3 61.227-9.637 35.35-34.886 61.068-67.605 82.462-7.806 5.119-16.136 9.601-23.606 16.531 6.275-1.144 13.036-1.335 18.713-3.56 22.933-8.965 45.941-17.93 68.128-28.102 15.276-6.994 14.716-7.884 24.913 6.898-6.275 5.658-12.737 11.476-19.199 17.325.635.636 1.27 1.304 1.905 1.939 7.508-4.1 14.978-8.233 22.373-12.27 23.494 18.978-5.341 24.605-12.662 37.829 9.338-4.705 16.621-8.36 25.175-12.652 6.387 12.207 4.183 22.984-5.79 31.249-31.897 26.418-69.696 42.249-114.965 43.775-32.981 1.112-63.085-5.182-79.034-31.758-16.098-26.767-6.835-53.47 11.018-77.472 17.891-24.033 42.057-42.948 72.237-55.886l17.928-7.629a1070.6 1070.6 0 0 1-5.901-7.948c-7.022 0-14.642-1.494-20.992.254-37.798 10.427-70.966 28.293-90.65 57.667-18.227 27.212-15.762 57.762-1.755 86.659 17.779 36.748 59.649 57.316 107.01 55.059 53.187-2.543 96.925-22.888 137.077-50.609 2.577-1.78 4.781-4.927 7.544-5.309 9.637-1.303 19.423-1.685 29.134-2.416-1.008 7.693.747 16.753-3.436 22.889-26.93 39.705-70.705 62.339-118.253 80.205C528.618 691.934 433.672 701.853 336 705l2.241-207.301zm42.094-393.27c0-1.971 0-3.91-.037-5.881-6.014-3.497-12.288-9.982-18.003-9.632-5.864.35-11.168 7.375-16.733 11.476 5.528 4.737 10.346 12.144 16.808 13.352 4.93.953 11.914-5.913 17.965-9.315z" fill="#F04C39"/><g clip-path="url(#a)"><path d="M341.72 497.699c-.56-77.09-.933-154.18-.747-231.27.224-86.499 1.009-173.03 1.606-259.562 0-2.257.71-4.515 1.121-6.867-26.033 2.257-75.448 51.277-102.416 101.282 35.708 29.978 37.276 67.394 30.478 106.178-2.315 13.16-20.766 24.255-36.603 23.969-18.153-.318-33.915-10.681-36.455-25.623-3.697-21.807-6.349-43.774-9.001-65.709-1.494-12.334-6.312-19.964-23.568-19.233-18.676.795-37.463-.286-56.176-1.239-14.268-.732-19.982 6.866-19.273 16.34 3.436 45.745 13.82 89.329 55.765 122.803 25.324 20.218 40.189 26.831 82.545 31.44-19.273 34.714-29.694 69.492 3.399 104.493-20.17-6.39-37.575-12.335-55.317-17.357-7.208-2.035-15.201-3.052-22.821-2.925-41.87.699-62.973 25.686-53.299 61.227 9.636 35.35 34.885 61.068 67.604 82.462 7.807 5.119 16.136 9.601 23.606 16.531-6.275-1.144-13.035-1.335-18.713-3.56-22.933-8.965-45.941-17.93-68.127-28.102-15.277-6.994-14.716-7.884-24.913 6.898 6.275 5.658 12.736 11.476 19.198 17.325-.635.636-1.27 1.304-1.905 1.939-7.507-4.1-14.977-8.233-22.373-12.27-23.493 18.978 5.341 24.605 12.662 37.829-9.338-4.705-16.621-8.36-25.174-12.652-6.387 12.207-4.184 22.984 5.789 31.249 31.897 26.418 69.696 42.249 114.965 43.775 32.981 1.112 63.086-5.182 79.035-31.758 16.098-26.767 6.835-53.47-11.019-77.472-17.891-24.033-42.057-42.948-72.236-55.886l-17.929-7.629c1.98-2.639 3.96-5.309 5.902-7.948 7.022 0 14.641-1.494 20.991.254 37.799 10.427 70.966 28.293 90.65 57.667 18.227 27.212 15.762 57.762 1.756 86.659-17.779 36.748-59.649 57.316-107.01 55.059-53.188-2.543-96.925-22.888-137.077-50.609-2.577-1.78-4.781-4.927-7.545-5.309-9.636-1.303-19.422-1.685-29.134-2.416 1.009 7.693-.747 16.753 3.437 22.889 26.93 39.705 70.705 62.339 118.252 80.205 29.694 11.158 124.639 21.077 222.311 24.224l-2.241-207.301zm-42.094-393.27c0-1.971 0-3.91.037-5.881 6.014-3.497 12.289-9.982 18.004-9.632 5.864.35 11.167 7.375 16.733 11.476-5.528 4.737-10.347 12.144-16.808 13.352-4.93.953-11.915-5.913-17.966-9.315z" fill="#F04C39"/></g><defs><clipPath id="a"><path fill="#fff" transform="matrix(-1 0 0 1 344 0)" d="M0 0h344v705H0z"/></clipPath></defs></svg>

<svg width="680" height="705" viewBox="0 0 680 705" fill="none" xmlns="http://www.w3.org/2000/svg">
<path d="M338.241 497.699C338.801 420.609 339.175 343.519 338.988 266.429C338.764 179.93 337.98 93.3981 337.382 6.86657C337.382 4.60951 336.672 2.35244 336.261 0C362.295 2.25707 411.71 51.2768 438.677 101.282C402.97 131.26 401.401 168.676 408.199 207.46C410.515 220.62 428.966 231.715 444.803 231.429C462.955 231.111 478.717 220.748 481.257 205.806C484.955 183.999 487.607 162.032 490.258 140.097C491.752 127.763 496.571 120.133 513.827 120.864C532.502 121.659 551.29 120.578 570.002 119.625C584.27 118.893 589.985 126.491 589.275 135.965C585.839 181.71 575.455 225.294 533.511 258.768C508.187 278.986 493.321 285.599 450.965 290.208C470.238 324.922 480.659 359.7 447.567 394.701C467.736 388.311 485.141 382.366 502.883 377.344C510.092 375.309 518.085 374.292 525.704 374.419C567.574 375.118 588.678 400.105 579.004 435.646C569.367 470.996 544.118 496.714 511.399 518.108C503.593 523.227 495.263 527.709 487.793 534.639C494.068 533.495 500.829 533.304 506.506 531.079C529.439 522.114 552.447 513.149 574.634 502.977C589.91 495.983 589.35 495.093 599.547 509.875C593.272 515.533 586.81 521.351 580.348 527.2C580.983 527.836 581.618 528.504 582.253 529.139C589.761 525.039 597.231 520.906 604.626 516.869C628.12 535.847 599.285 541.474 591.964 554.698C601.302 549.993 608.585 546.338 617.139 542.046C623.526 554.253 621.322 565.03 611.349 573.295C579.452 599.713 541.653 615.544 496.384 617.07C463.403 618.182 433.299 611.888 417.35 585.312C401.252 558.545 410.515 531.842 428.368 507.84C446.259 483.807 470.425 464.892 500.605 451.954C506.581 449.411 512.557 446.868 518.533 444.325C516.553 441.686 514.574 439.016 512.632 436.377C505.61 436.377 497.99 434.883 491.64 436.631C453.842 447.058 420.674 464.924 400.99 494.298C382.763 521.51 385.228 552.06 399.235 580.957C417.014 617.705 458.884 638.273 506.245 636.016C559.432 633.473 603.17 613.128 643.322 585.407C645.899 583.627 648.103 580.48 650.866 580.098C660.503 578.795 670.289 578.413 680 577.682C678.992 585.375 680.747 594.435 676.564 600.571C649.634 640.276 605.859 662.91 558.311 680.776C528.618 691.934 433.672 701.853 336 705L338.241 497.699ZM380.335 104.429C380.335 102.458 380.335 100.519 380.298 98.548C374.284 95.0512 368.01 88.5661 362.295 88.9158C356.431 89.2655 351.127 96.291 345.562 100.392C351.09 105.129 355.908 112.536 362.37 113.744C367.3 114.697 374.284 107.831 380.335 104.429Z" fill="#F04C39"/>
<g clip-path="url(#clip0)">
<path d="M341.72 497.699C341.16 420.609 340.787 343.519 340.973 266.429C341.197 179.93 341.982 93.3981 342.579 6.86657C342.579 4.60951 343.289 2.35244 343.7 0C317.667 2.25707 268.252 51.2768 241.284 101.282C276.992 131.26 278.56 168.676 271.762 207.46C269.447 220.62 250.996 231.715 235.159 231.429C217.006 231.111 201.244 220.748 198.704 205.806C195.007 183.999 192.355 162.032 189.703 140.097C188.209 127.763 183.391 120.133 166.135 120.864C147.459 121.659 128.672 120.578 109.959 119.625C95.6912 118.893 89.9766 126.491 90.6863 135.965C94.1225 181.71 104.506 225.294 146.451 258.768C171.775 278.986 186.64 285.599 228.996 290.208C209.723 324.922 199.302 359.7 232.395 394.701C212.225 388.311 194.82 382.366 177.078 377.344C169.87 375.309 161.877 374.292 154.257 374.419C112.387 375.118 91.2839 400.105 100.958 435.646C110.594 470.996 135.843 496.714 168.562 518.108C176.369 523.227 184.698 527.709 192.168 534.639C185.893 533.495 179.133 533.304 173.455 531.079C150.522 522.114 127.514 513.149 105.328 502.977C90.0513 495.983 90.6116 495.093 80.4148 509.875C86.6897 515.533 93.1514 521.351 99.6131 527.2C98.9781 527.836 98.3431 528.504 97.7082 529.139C90.2007 525.039 82.7306 520.906 75.3351 516.869C51.8415 535.847 80.6763 541.474 87.997 554.698C78.6593 549.993 71.3759 546.338 62.8226 542.046C56.4357 554.253 58.6393 565.03 68.612 573.295C100.509 599.713 138.308 615.544 183.577 617.07C216.558 618.182 246.663 611.888 262.612 585.312C278.71 558.545 269.447 531.842 251.593 507.84C233.702 483.807 209.536 464.892 179.357 451.954C173.381 449.411 167.405 446.868 161.428 444.325C163.408 441.686 165.388 439.016 167.33 436.377C174.352 436.377 181.971 434.883 188.321 436.631C226.12 447.058 259.287 464.924 278.971 494.298C297.198 521.51 294.733 552.06 280.727 580.957C262.948 617.705 221.078 638.273 173.717 636.016C120.529 633.473 76.7918 613.128 36.6398 585.407C34.0626 583.627 31.8589 580.48 29.0949 580.098C19.4585 578.795 9.67255 578.413 -0.0386353 577.682C0.969834 585.375 -0.785635 594.435 3.39764 600.571C30.3275 640.276 74.1025 662.91 121.65 680.776C151.344 691.934 246.289 701.853 343.961 705L341.72 497.699ZM299.626 104.429C299.626 102.458 299.626 100.519 299.663 98.548C305.677 95.0512 311.952 88.5661 317.667 88.9158C323.531 89.2655 328.834 96.291 334.4 100.392C328.872 105.129 324.053 112.536 317.592 113.744C312.662 114.697 305.677 107.831 299.626 104.429Z" fill="#F04C39"/>
</g>
<defs>
<clipPath id="clip0">
<rect width="344" height="705" fill="white" transform="matrix(-1 0 0 1 344 0)"/>
</clipPath>
</defs>
</svg>
